X:39
T:Chloe's Dream
M:2/4
L:1/8
B:Thompson's Compleat Collection of 200 Favourite Country Dances, vol. 2 (London, 1765)
Z:Transcribed and edited by Flynn Titford-Mock, 2007
Z:abc's:AK/Fiddler's Companion
K:D
A | D>AF>A | D>AF>A | G>Bd>F | E/E/E E2 | D>AF>A | Dade | fdec | d/d/d d :|
|: e | fdec | BGAF | G>Bd>F | EEEe | fdec | BGAF | G>BA>F | D/D/D D :|

